!!!!SEGMENT: pl-wtm--r-1358_stefani-jozef--polonez.krn
!!!cenid: 18xx:2898
!!!COM: Stefani, Józef
!!!COM-rismID: pe30024097
!!!CDT: 1800/04/16-1876/03/19
!!!CNT: Polish
!!!OTL: Polonez
!!!PDT:
!!!AGN: Secular; Polonaise
!!!SMS-siglum: PL-Wtm
!!!SMS-shelfmark: R 1358
!!!SMS-shelfwork: W
!!!SMS-variant:
!!!SMS-altvar:
!!!NIFC-rismSourceID: 1001119501
!!!NIFC-islandoraID: pl-wtm:25339
!!!URL-pdf-islandora: https://repozytorium.nifc.pl/islandora/object/pl-wtm%3A25339/datastream/PDF/view
!!!URL-scan: https://polish.musicsources.pl/pl/lokalizacje/galeria/rekopisy/6210 @EN{Scan on Polish Music Sources Website} @PL{Skany w portalu Dziedzictwo Muzyki Polskiej w otwartym dostępie}
!!!ONB-nifc:
!!!AIN: 1 forte
!!!key:
**kern	**kern	**dynam
*part1	*part1	*part1
*staff2	*staff1	*
*Iforte	*Iforte	*
*I"[Fortepian]	*I"[Fortepian]	*
*>[A,B,B,C,B,A,D,E,E,F,E,A,G]	*>[A,B,B,C,B,A,D,E,E,F,E,A,G]	*
*>A	*>A	*
*clefF4	*clefG2	*
*k[]	*k[]	*
*C:	*C:	*
*M3/4	*M3/4	*
*all/left or middle or right	*all/left or middle or right	*
*2\right	*2\right	*
=1	=1	=1
8cL 8G 8C\	8ccL 8e/	f
16cL 16G 16C\	16gL 16e/	.
16cJJ 16G 16C\	16gJJ 16e/	.
4.c 4.G 4.C\	4.cc 4.e/	.
8c 8G 8C\	8g 8e/	.
=2	=2	=2
8cL 8G 8C\	8ccL 8e/	.
16dL 16G\	16ddL 16b 16g/	.
16dJJ 16G\	16ddJJ 16b 16g/	.
8eL 8c\	8eeL 8cc\	.
8fJ 8d\	8ffJ 8dd\	.
4g 4e\	4gg 4ee\	.
=3	=3	=3
8AL 8AA/	8cccL 8aa 8ee\	.
16AL 16AA/	16cccL 16aa 16ee\	.
16AJJ 16AA/	16cccJJ 16aa 16ee\	.
8AL 8AA/	8cccL 8aa 8ee\	.
8AJ 8AA/	8cccJ 8aa 8ee\	.
8GL 8GG/	8ccc#XL 8aa 8ee\	.
8GJ 8GG/	8ccc#J 8aa 8ee\	.
=4	=4	=4
!!LO:LB:g=original
8FL 8FF/	8dddL 8aa 8ff\	.
8C#XJ 8CC#X/	8eeeJ 8aa 8ee\	.
8D 8DD/	8fff 8ddd 8aa 8ff\	.
8r	8r	.
4F#X 4FF#X/	4aa 4dd#X 4cc^\	.
=5	=5	=5
*^	*	*
8GL 8GG\	2ryy	8gg|L 8ee 8cc\	.
8C\	.	(16eee\L	.
.	.	16ddd\JJ	.
8E\	.	16ccc\LL	.
.	.	16bb\	.
8G\J	.	16aa\	.
.	.	16gg\JJ)	.
4GG/	8GG\L	(16ff#X\LL	.
.	.	16gg\	.
.	8FJ 8D\	16aa\	.
.	.	16bb\JJ	.
=6	=6	=6	=6
8GG\L	2ryy	8ccc|\L)	.
8C\	.	(16eee\L	.
.	.	16ddd\JJ	.
8E\	.	16ccc\LL	.
.	.	16bb\	.
8G\J	.	16aa\	.
.	.	16gg\JJ)	.
4GG/	8GG\L	(16ff#X\LL	.
.	.	16gg\	.
.	8FJ 8D\	16aa\	.
.	.	16bb\JJ)	.
*v	*v	*	*
=7	=7	=7
!!LO:LB:g=original
8E|L 8C\	8ccc|\L	.
(16e\L	(16eee\L	.
16d\JJ	16ddd\JJ	.
16c\LL	16ccc\LL	.
16B\	16bb\	.
16A\)	16aa\	.
16G\JJ	16gg\JJ)	.
(16A\LL	(16aa\LL	.
16G\	16gg\	.
16F\	16ff\	.
16E\JJ)	16ee\JJ)	.
=8	=8	=8
8F 8FF/	8aa 8ff 8cc\	.
8r	8r	.
8G 8GG/	8gg 8ee 8cc\	.
8r	8r	.
4G 4D 4GG/	4bb 4gg 4ff 4dd\	.
=9	=9	=9
2.r	2.r	.
!!LO:TX:t=[segno]
!!LO:TX:t=P:problem:kreska z wężowatym segno
=10!|:	=10!|:	=10||
*>B	*>B	*
*^	*	*
!	!LO:N:vis=2	!	!
2.C/	8C\L	8eeL 8cc'\	p
.	8c 8G 8E\	(16eeL 16cc\	.
.	.	16ffJJ 16dd\	.
.	8c 8G 8E\	4.gg 4.ee\)	.
.	8c 8G 8E\	.	.
.	8c 8G 8E\	.	.
.	8cJ 8G 8E\	8ccc 8ee\	.
=11	=11	=11	=11
!!LO:LB:g=original
!	!LO:N:vis=2	!	!
2.C/	8C\L	8eeeL 8gg'\	.
.	8c 8G 8E\	16eeeL 16gg'\	.
.	.	16dddJJ 16ff'\	.
.	8c 8G 8E\	4.ccc 4.ee'\	.
.	8c 8G 8E\	.	.
.	8c 8G 8E\	.	.
.	8cJ 8G 8E\	8gg 8ee'\	.
=12	=12	=12	=12
4GG#X/	8GG#\L	(8ffT\L	f
.	8FJ 8D\	16dd\Jk)	.
.	.	16r	.
4AA/	8AA\L	(8ffT\L	.
.	8FJ 8D\	16dd\Jk)	.
.	.	16r	.
4BB/	8BB\L	(8ffT\L	.
.	8GJ 8F 8D\	16dd\Jk)	.
.	.	16r	.
=13	=13	=13	=13
8C\L	4C/	8ee|\L	.
8GJ 8E\	.	(16eee\L	.
.	.	16ddd\JJ)	.
8AL 8F#X 8D#X 8C^\	2ryy	(16ccc\LL	.
.	.	16bb\JJ)	.
.	.	(8qddd/	.
8AJ 8F# 8D# 8C^\	.	16ccc\LL)	.
.	.	16aa|\JJ	.
4G 4E 4C\	.	4gg|\	.
=14	=14	=14	=14
!	!LO:N:vis=2	!	!
2.C/	8C\L	8eeL 8cc'\	.
.	8c 8G 8E\	16eeL 16cc'\	.
.	.	16ffJJ 16dd'\	.
.	8c 8G 8E\	4.gg 4.ee'\	.
.	8c 8G 8E\	.	.
.	8c 8G 8E\	.	.
.	8cJ 8G 8E\	8ccc 8ee'\	.
=15	=15	=15	=15
!!LO:LB:g=original
!LO:N:vis=2	!	!	!
8AA\L	2AA/	8eeeL 8ccc\	.
8A 8E 8C\	.	16eeeL 16ccc\	.
.	.	16dddJJ 16bb\	.
8A 8E 8C\	.	4ccc 4aa\	.
8AJ 8E 8C\	.	.	.
8GL 8GG/	4ryy	4ccc#X 4aa\	.
8GJ 8GG/	.	.	.
*v	*v	*	*
=16	=16	=16
*	*^	*
8FL 8FF/	(16ddd/LL	8aa\L	.
.	16ccc#X/	.	.
16FL 16FF/	16ddd/	8aa\J	.
16EJJ 16EE/	16eee/JJ	.	.
8D 8DD/	8fff 8ddd/)	8aa\	.
8r	8r	8ryy	.
4F 4FF/	4ddd 4ff\	4ryy	.
=17	=17	=17	=17
4G 4GG/	(16ccc/LL	8ee\L	.
.	16gg/)	.	.
.	(16eee/	16gg\L	.
.	16ddd/JJ)	16ff\JJ	.
8r	(4ddd/	4ff\	.
*clefG2	*	*	*
8gL 8B 8G/	.	.	.
8gJ 8c/	8ccc/)	8ee\	.
8r	8r	8r	.
*	*v	*v	*
=18:|!;	=18:|!;	=18:|!
*>C	*>C	*
*clefF4	*	*
!!LO:PB:g=original
!LO:TX:t=P:problem=mixed beam	!	!
8GG/L	8b|L 8g\	p
8BJ 8G 8D\	(16ddL 16b\	.
.	16eeJJ 16cc\	.
8BL 8G 8D\	8dd 8b\)	.
8B 8G 8D\	8r	.
.	(32qqgg/LLL	.
.	32qqaa/JJJ	.
8B 8G 8D\	4bb\)	.
8BJ 8G 8D\	.	.
=19	=19	=19
*rep	*	*
!LO:TX:t=P:problem=mixed beam	!	!
8GG/L	8bL 8g'\	.
8BJ 8G 8D\	(16ddL 16b\	.
.	16eeJJ 16cc\	.
8BL 8G 8D\	8dd 8b\)	.
8B 8G 8D\	8r	.
.	(32qqgg/LLL	.
.	32qqaa/JJJ	.
8B 8G 8D\	4bb\)	.
8BJ 8G 8D\	.	.
*Xrep	*X	*
=20	=20	=20
8DL 8DD\	(4.ddd 4.dd\	.
8cJ 8F#X 8D\	.	.
*tremolo	*	*
8cL 8F# 8D\	.	.
8c 8F# 8D\	8cccL 8cc\	.
8c 8F# 8D\	8aa 8a\	.
8cJ 8F# 8D\	8aa#XJ 8a#X\)	.
*Xtremolo	*	*
=21	=21	=21
!LO:TX:t=P:problem=mixed beam	!	!
8GG/L	(4bb 4b\	.
8BJ 8G 8D\	.	.
*tremolo	*	*
8BL 8G 8D\	8gg 8g\)	.
8B 8G 8D\	8r	.
8B 8G 8D\	4dd 4b\	.
8BJ 8G 8D\	.	.
*Xtremolo	*	*
=22	=22	=22
!!LO:LB:g=original
!LO:TX:t=P:problem=mixed beam	!	!
8GG/L	8bL 8g'\	.
8BJ 8G 8D\	(16ddL 16b\	.
.	16eeJJ 16cc\	.
*tremolo	*	*
8BL 8G 8D\	8dd 8b\)	.
8B 8G 8D\	8r	.
.	(32qqgg/LLL	.
.	32qqaa/JJJ	.
8B 8G 8D\	4bb\)	.
8BJ 8G 8D\	.	.
*Xtremolo	*	*
=23	=23	=23
*rep	*	*
!LO:TX:t=P:problem=mixed beam	!	!
8GG/L	8bL 8g'\	.
8BJ 8G 8D\	(16ddL 16b\	.
.	16eeJJ 16cc\	.
8BL 8G 8D\	8dd 8b\)	.
8B 8G 8D\	8r	.
.	(32qqgg/LLL	.
.	32qqaa/JJJ	.
8B 8G 8D\	4bb\)	.
8BJ 8G 8D\	.	.
*Xrep	*	*
=24	=24	=24
8D 8DD/	4.fff#X 4.ff#X\	.
8c 8A 8F#X 8D\	.	.
*tremolo	*	*
8cL 8A 8F# 8D\	.	.
8c 8A 8F# 8D\	8eeeL 8ee\	.
8c 8A 8F# 8D\	8ccc 8cc\	.
8cJ 8A 8F# 8D\	8aaJ 8a\	.
*Xtremolo	*	*
=25	=25	=25
!LO:TX:t=P:problem=mixed beam	!	!
8GG/L	(16bb\LL	.
.	16ccc\	.
8BJ 8G 8D\	16bb\	.
.	16aa\JJ	.
*tremolo	*	*
8BL 8G 8D\	8gg\)	.
8B 8G 8D\	8r	.
8B 8G 8D\	4g/	.
8BJ 8G 8D\	.	.
*Xtremolo	*	*
=26	=26	=26
!!LO:LB:g=original
*^	*	*
!	!LO:N:vis=2	!	!
2GG/	(>8GG\L	[4gg [>4ee-X\	.
.	8C\	.	.
.	8E-X\	8.gg]L 8.ee-\]	.
.	8G\J)	.	.
.	.	16ggJk 16ee-|\	.
4GG/	(>8GG\L	8.ff|L 8.dd\	.
.	8G\J)	.	.
.	.	16ee-X|Jk 16cc\	.
=27	=27	=27	=27
!	!LO:N:vis=2	!	!
2GG/	(>8GG\L	2dd 2b\	.
.	8BB\	.	.
.	8D\	.	.
.	8G\J)	.	.
4GG/	(>8GG\L	4g/	.
.	8G\J)	.	.
=28	=28	=28	=28
!	!LO:N:vis=2	!	!
2GG/	(>8GG\L	(4.gg 4.ee-X\	.
.	8C\	.	.
.	8E-X\	.	.
.	8G\J)	16aa-XLL 16ff\	.
.	.	16ggJJ 16ee-\)	.
4GG/	(>8GG\L	8.ffL 8.dd\	.
.	8G\J)	.	.
.	.	16ee-Jk 16cc\	.
=29	=29	=29	=29
!	!LO:N:vis=2	!	!
2GG/	(>8GG\L	2dd 2b\	.
.	8BB\	.	.
.	8D\	.	.
.	8G\J)	.	.
4BB/	(>8GG\L	4ddd 4dd\	.
.	8G\J)	.	.
*v	*v	*	*
=30	=30	=30
8CL 8CC/	8dddL 8dd'\	.
8AJ 8E-X 8C/	8cccJ 8cc'\	.
*tremolo	*	*
8AL 8E- 8C\	4.ee-X 4.e-X\	.
8A 8E- 8C\	.	.
8A 8E- 8C\	.	.
8AJ 8E- 8C\	8aa 8a\	.
*Xtremolo	*	*
=31	=31	=31
!!LO:LB:g=original
8GG/	8cccL 8cc\	.
8B 8G 8D\	8bbJ 8b\	.
*tremolo	*	*
8BL 8G 8D\	4.dd 4.d/	.
8B 8G 8D\	.	.
8B 8G 8D\	.	.
8BJ 8G 8D\	8gg 8g\	.
*Xtremolo	*	*
=32	=32	=32
!	!LO:TX:t=P:problem=łuk złamany	!
8DL 8DD\	(16f#X/LL	.
.	16e/	.
8cJ 8A 8D\	16d/	.
.	16e/JJ	.
*tremolo	*	*
8cL 8A 8D\	16f#/LL	.
.	16g/	.
8c 8A 8D\	16a/	<
.	16b/JJ	.
8c 8A 8D\	16cc\LL	.
.	16dd\	.
8cJ 8A 8D\	16ee\	.
.	16ff#X\JJ)	[
*Xtremolo	*	*
=33	=33	=33
!	!	!LO:DY:t=ffo
16GGLL 16GGG/	16ggLL 16dd\	ff
16AA 16AAA/	16ff#X 16cc'\	.
16BB 16BBB/	16ffn 16dd'\	.
16CJJ 16CC/	16eeJJ 16cc'\	.
16DLL 16DD/	16ddLL 16b'/	.
16D#X 16DD#X/	16cc 16a'/	.
16E 16EE/	16b 16g'/	.
16FJJ 16FF/	16aJJ 16fn'/	.
16GLL 16GG\	16gLL 16e'/	.
16G#X 16GG#X\	16f 16d'/	.
16A 16AA\	16e 16c'/	.
!LO:TX:b:i:t=d'al Segno al fine\ne poi Pol.	!	!
16BJJ 16BB\	16d'/JJ	.
!!LO:TX:t=P:problem:wężowate segno na kresce
!!LO:TX:t=[segno]
=34:|!	=34:|!	=34:|!
*>D	*>D	*
*k[b-]	*k[b-]	*
*M3/4	*M3/4	*
!!LO:PB:g=original
!	!LO:TX:a:t=Trio.	!
4F 4FF/	8aL 8c'/	p
.	(>16g#XL 16Bn^/	.
.	16aJJ 16c/	.
8r	8fL 8A/)	.
8F/L	8c 8A/	.
8C/	8c 8A/	.
8AA/J	8cJ 8A/	.
=35	=35	=35
4FF/	8aL 8c'/	.
.	(>16g#XL 16Bn^/	.
.	16aJJ 16c/	.
8r	8fL 8A/)	.
8F/L	8c 8A'>/	.
8C/	8c 8A'>/	.
8AA/J	8cJ 8A'>/	.
!!LO:TX:t=P:problem:wężowate segno na kresce
!!LO:TX:t=[segno]
=36!|:	=36!|:	=36!|:
*>E	*>E	*
!LO:TX:t=P:problem=mixed beam	!	!
8FF/L	8f/L	.
8cJ 8A 8F\	16a/L	.
.	16cc/JJ	.
*tremolo	*	*
8cL 8A 8F\	4.ff\	.
8c 8A 8F\	.	.
8c 8A 8F\	.	.
8cJ 8A 8F\	8ee\	.
*Xtremolo	*	*
!!LO:LB:g=original
=37	=37	=37
!LO:TX:t=P:problem=mixed beam	!	!
8FF/L	16ee\LL	.
.	16dd\	.
8dJ 8B- 8F\	16cc#X\	.
.	16dd\JJ	.
*tremolo	*	*
8dL 8B- 8F\	4.b-\	.
8d 8B- 8F\	.	.
8d 8B- 8F\	.	.
8dJ 8B- 8F\	8a/	.
*Xtremolo	*	*
=38	=38	=38
*^	*	*
4F/	8F\L	8ggL 8g\	.
.	8eJ 8c 8B-\	16aaL 16a\	.
.	.	16bb-JJ 16b-\	.
*rep	*rep	*	*
4F/	8F\L	4.ccc 4.cc\	.
.	8eJ 8c 8B-\	.	.
*Xrep	*Xrep	*	*
*rep	*rep	*	*
4F/	8F\L	.	.
.	8eJ 8c 8B-\	8bb- 8b-\	.
*Xrep	*Xrep	*	*
*v	*v	*	*
=39	=39	=39
8fL 8c 8A 8F\	(16aa\LL	.
.	16bb-\	.
8c 8B- 8E 8C\	16gg\	.
.	16aa\JJ	.
8cJ 8A 8F\	8ff\)	f
8cL 8G 8C\	8aaL 8ee 8cc'^<\	.
8cJ 8A 8F\	8aaJ 8ff 8cc'^<\	.
8r	8ff 8f\	.
=40	=40	=40
*^	*	*
8FF\L	2ryy	8ffL 8f'\	.
8AJ 8F 8C\	.	16aaL 16a'\	.
.	.	16cccJJ 16cc'\	.
8FF\L	.	4fff 4ff'\	.
8AJ 8F 8C\	.	.	.
8AA\L	4AA/	4eee 4ee'\	.
8GJ 8E 8C#X\	.	.	.
=41	=41	=41	=41
!!LO:LB:g=original
4BB-/	8BB-\L	(16ee\LL	.
.	.	16dd\	.
.	8FJ 8D\	16cc#X\	.
.	.	16dd\JJ)	.
4BB-/	8BB-\L	8.bb-L 8.gg\	.
.	8FJ 8D\	.	.
.	.	16aaJk 16ff\	.
4BB-/	8BB-\L	16ggLL 16ee\	.
.	.	16ff 16dd\	.
.	8GJ 8D\	16ee 16cc#\	.
.	.	16ddJJ 16b-\	.
*v	*v	*	*
=42	=42	=42
8A 8F 8C\	8ccL 8a\	f
8r	16cccL 16aa'\	.
.	16bb-JJ 16gg'\	.
4r	16aaLL 16ff'\	.
.	16gg 16ee'\	.
.	16ff 16dd'\	.
.	16eeJJ 16cc'\	.
4r	16ddLL 16b-'\	.
.	16cc 16a'\	.
.	16b- 16g'\	.
.	16aJJ 16f'\	.
=43	=43	=43
4B- 4G 4C\	(>16dd/LL	p
.	16cc/	.
.	16b-/JJ)	.
.	32r	.
.	32e|/	.
8r	(4g/	.
8B-L 8E 8C\	.	.
8AJ 8F\	8f/)	.
8r	8r	.
=44:|!;	=44:|!;	=44:|!;
!!LO:LB:g=original
*>F	*>F	*
8AL 8F 8D\	8a'/L	f
8AJ 8F 8D\	(16a/L	.
.	16b-/JJ)	.
*rep	*rep	*
8AL 8F 8D\	8a'/L	.
8AJ 8F 8D\	(16a/L	.
.	16b-/JJ)	.
*Xrep	*Xrep	*
*rep	*rep	*
8AL 8F 8D\	8a'/L	.
8AJ 8F 8D\	(16a/L	.
.	16b-/JJ)	.
*Xrep	*Xrep	*
=45	=45	=45
8AL 8F 8D\	8a\L	.
8AJ 8F 8D\	8dd\J	.
*rep	*	*
8AL 8F 8D\	4.ff\	.
8AJ 8F 8D\	.	.
*Xrep	*	*
*rep	*	*
8AL 8F 8D\	.	.
8AJ 8F 8D\	8dd\	.
*Xrep	*	*
=46	=46	=46
8AL 8G 8E 8C#X\	(16ee\LL	.
.	16bb-\)	.
8AJ 8G 8E 8C#\	(16bb-\	.
.	16aa\JJ)	.
*rep	*	*
8AL 8G 8E 8C#\	(16aa\LL	.
.	16gg\)	.
8AJ 8G 8E 8C#\	(16gg\	.
.	16ff\JJ)	.
*Xrep	*	*
*rep	*	*
8AL 8G 8E 8C#\	(16ff\LL	.
.	16ee\)	.
8AJ 8G 8E 8C#\	(16ee\	.
.	16a\JJ)	.
*Xrep	*	*
=47	=47	=47
8AL 8F 8D\	8ff\L	.
!	!LO:TUP:a:problem=klamra łukowa, numer	!
8AJ 8F 8D\	24gg\L	.
.	24ff\	.
.	24ee\JJ	.
*rep	*	*
8AL 8F 8D\	8dd\	.
!	!LO:TUP:a:problem=klamra łukowa, numer	!
8AJ 8F 8D\	24ggg\LL	.
.	24fff\	.
.	24eee\JJ	.
*Xrep	*	*
*rep	*	*
8AL 8F 8D\	8ddd\	.
8AJ 8F 8D\	8ff\	.
*Xrep	*	*
=48	=48	=48
!!LO:LB:g=original
8cL 8G 8E\	(16gg\LL	.
.	16ddd\)	.
8cJ 8G 8E\	(16ddd\	.
.	16ccc\JJ)	.
*rep	*	*
8cL 8G 8E\	(16ccc\LL	.
.	16bb-\)	.
8cJ 8G 8E\	(16bb-\	.
.	16aa\JJ)	.
*Xrep	*	*
*rep	*	*
8cL 8G 8E\	(16aa\LL	.
.	16gg\)	.
8cJ 8G 8E\	(16gg\	.
.	16gg#X\JJ)	.
*Xrep	*	*
=49	=49	=49
8cL 8A 8F\	8aa\L	.
!	!LO:TUP:a:problem=klamra łukowa, numer	!
8cJ 8A 8F\	24bb-\L	.
.	24aa\	.
.	24gg\JJ	.
8cL 8A 8F\	8ff\	.
*	*Xtuplet	*
*	*8va	*
!	!LO:TUP:a:problem:problem=brak oznaczenia trioli	!
8cJ 8A 8F\	24bbb-\LL	.
.	24aaa\	.
.	24ggg\JJ	.
8c 8A 8F\	8fff\	.
*	*X8va	*
!	!LO:TX:a:t=loco	!
8r	(16ff\LL	.
.	16ee\JJ)	.
=50	=50	=50
8G#XL 8D 8BB-\	(16dd\LL	.
.	16cc#X\	.
8G#J 8D 8BB-\	16dd\	.
.	16cc#\JJ	.
*rep	*	*
8G#L 8D 8BB-\	16dd\LL	.
.	16cc#\	.
8G#J 8D 8BB-\	16dd\)	.
.	16cc#\JJ	.
*Xrep	*	*
*rep	*	*
8G#L 8D 8BB-\	(16dd\LL	.
.	16ff\	.
8G#J 8D 8BB-\	16ee\	.
.	16dd\JJ)	.
*Xrep	*	*
=51	=51	=51
!!LO:PB:g=original
*tremolo	*	*
8AL 8E 8C#X 8AA\	16cc#X|\LL	.
.	(16a\	.
8A 8E 8C# 8AA\	16cc#\	.
.	16ee\JJ	.
8A 8E 8C# 8AA\	16aa\LL)	.
.	(16cc#\	.
8AJ 8E 8C# 8AA\	16ee\	.
.	16aa\JJ	.
*Xtremolo	*	*
8AL 8F 8D\	16dd\LL)	.
.	(16ff\	.
8AJ 8F 8D\	16ee\	.
.	16dd\JJ	.
=52	=52	=52
*rep	*	*
8AL 8E 8C#X 8AA\	16cc#X|\LL)	.
.	(16a\	.
8A 8E 8C# 8AA\	16cc#\	.
.	16ee\JJ	.
!	!	!LO:HP:t=crescendo
8A 8E 8C# 8AA\	16aa\LL)	<
.	(16cc#\	.
8AJ 8E 8C# 8AA\	16ee\	.
.	16aa\JJ	.
8AL 8F 8D\	16dd\LL)	.
.	(16ff\	.
8AJ 8F 8D\	16ee\	.
.	16dd\JJ	.
*Xrep	*	*
=53	=53	=53
*rep	*	*
8AL 8E 8C#X 8AA\	16cc#X\LL)	.
.	(16a\	.
8A 8E 8C# 8AA\	16cc#\	.
.	16ee\JJ	.
8A 8E 8C# 8AA\	16aa\LL)	.
.	(16cc#\	.
8AJ 8E 8C# 8AA\	16ee\	.
.	16aa\JJ	.
8AL 8F 8D\	16dd\LL)	.
.	(16ff\	.
8AJ 8F 8D\	16ee\	.
.	16dd\JJ	.
*Xrep	*	*
=54	=54	=54
!!LO:LB:g=original
8A 8E 8C#X 8AA\	8aa 8cc#X 8a\)	.
16A\LL	16a/LL	.
16A\JJ	16a/JJ	.
8A\L	8a/L	.
16A\L	16a/L	.
16A\JJ	16a/JJ	.
8A\L	8a/L	.
8A\J	8a/J	.
=55	=55	=55
!	!	!LO:DY:t=ffo
2.Cn 2.CCn/	8.bb-|L 8.gg\	ff
.	16aa|Jk 16ff\	.
.	16ggLL 16ee'\	.
.	16ff 16dd'\	.
.	16ee 16cc'\	.
.	16ddJJ 16b-'\	.
.	16ccLL 16a'/	.
.	16b- 16g'/	.
.	16a 16f'/	.
.	16gJJ 16e'/	.
!!LO:TX:t=P:problem:wężowate segno na kresce
!!LO:TX:t=[segno]
!!LO:TX:b:i:t=d'al segno al fine \net dacapo Polonez
=56:|!	=56:|!	=56:|!
*>G	*>G	*
*k[]	*k[]	*
!!LO:LB:g=original
!!LO:TX:a:B:t=Coda
8CL 8CC/	8cccL 8ee 8cc'\	.
16CL 16CC/	16cccL 16ee 16cc'\	.
16CJJ 16CC/	16cccJJ 16ee 16cc'\	.
16CLL 16CC/	(16cccLL 16ee 16cc\	.
16D/	16bb\)	.
16E/	16aa'\	.
16F/JJ	16gg'\JJ	.
16G\LL	16ff'\LL	.
16A\	16ee'\	.
16B\	16dd'\	.
16c\JJ	16cc'\JJ	.
=57	=57	=57
*rep	*	*
8CL 8CC/	8eeeL 8ccc 8gg 8ee'\	.
16CL 16CC/	16eeeL 16ccc 16gg 16ee'\	.
16CJJ 16CC/	16eeeJJ 16ccc 16gg 16ee'\	.
16CLL 16CC/	(16eeeLL 16ccc 16gg 16ee\	.
16D/	16ddd 16bb\)	.
16E/	16ccc 16aa'\	.
16F/JJ	16bbJJ 16gg'\	.
16G\LL	16aaLL 16ff'\	.
16A\	16gg 16ee'\	.
16B\	16ff 16dd'\	.
16c\JJ	16eeJJ 16cc'\	.
*Xrep	*	*
=58	=58	=58
*rep	*	*
8CL 8CC/	8gggL 8eee 8ccc 8gg'\	.
16CL 16CC/	16gggL 16eee 16ccc 16gg'\	.
16CJJ 16CC/	16gggJJ 16eee 16ccc 16gg'\	.
16CLL 16CC/	(16gggLL 16eee 16ccc 16gg\	.
16D/	16fff 16ddd\)	.
16E/	16eee 16ccc'\	.
16F/JJ	16dddJJ 16bb'\	.
16G\LL	16cccLL 16aa'\	.
16A\	16bb 16gg'\	.
16B\	16aa 16ff'\	.
16c\JJ	16ggJJ 16ee'\	.
*Xrep	*	*
=59	=59	=59
!!LO:LB:g=original
8F 8FF/	8aa 8ff 8cc\	.
8r	8r	.
8G 8GG/	8gg 8ee 8cc\	.
8r	8r	.
4G 4GG/	4bb 4gg 4ff 4dd\	.
=60	=60	=60
4.C 4.CC/	8cccL 8gg 8ee\	.
.	16cccL 16ee\	.
.	16dddJJ 16ff\	.
.	8eeeL 8gg\	.
8E 8EE/	8ccc 8ee\	.
8GL 8GG/	8ddd 8ff\	.
8GJ 8GG/	8bbJ 8dd\	.
=61	=61	=61
4.C 4.CC/	8cccL 8ee\	.
.	16cccL 16ee\	.
.	16dddJJ 16ff\	.
.	8eeeL 8gg\	.
8E 8EE/	8ccc 8ee\	.
8GL 8GG/	8ddd 8ff\	.
8GJ 8GG/	8bbJ 8dd\	.
=62	=62	=62
!	!LO:TX:t=P:problem=mixed beam	!
8G 8C\	8cccL 8ee\	.
16G\LL	16g/L	.
16G\JJ	16g/JJ	.
8c\L	8cc\L	.
8e\J	8ee\	.
!LO:TX:t=P:problem=mixed beam	!	!
8g\L	8gg\	.
8G/J 8GG/	8bbJ 8gg 8ff 8dd\	.
=63	=63	=63
!!LO:LB:g=original
!	!LO:TX:t=P:problem=mixed beam	!
8G 8C\	8cccL 8ee\	.
16G\LL	16g/L	.
16G\JJ	16g/JJ	.
8c\L	8cc\L	.
8e\J	8ee\J	.
!LO:TX:t=P:problem=mixed beam	!	!
8g\L	8gg\L	.
8G/J 8GG/	8bbJ 8gg 8ff 8dd\	.
=64	=64	=64
4G 4C\	4ccc 4gg 4ee\	.
4r	4r	.
4r	4r	.
=65	=65	=65
4c 4G 4E 4C\	4eee 4ccc 4gg 4ee\	.
4r	4r	.
8.r	8.r	.
16C 16CC/	16c/	.
=66	=66	=66
2.C 2.CC;/	2.c;/	.
==	==	==
*-	*-	*-
!!!system-decoration: {(s1,s2)}
!!!RDF**kern: > = above
!!!RDF**kern: < = below
!!!RDF**kern: | = vertical stroke
!!!ENC: Kamil Watkowski
!!!END: 2021-08-10
!!!YEC: Copyright 2022 Narodowy Instytut Fryderyka Chopina (https://polishscores.org)
!!!YEM: Licence CC BY 4.0 (https://creativecommons.org/licenses/by/4.0)
